Papirus/22x22/actions/transaction-edit.svg

<svg xmlns="http://www.w3.org/2000/svg" width="22" height="22" version="1.1">
 <defs>
  <style id="current-color-scheme" type="text/css">
   .ColorScheme-Text { color:#444444; } .ColorScheme-Highlight { color:#4285f4; }
  </style>
 </defs>
 <path style="fill:currentColor" class="ColorScheme-Text" d="M 7,10 3,13.239999 7,17 v -2.02 h 2.0626397 c 0.9771093,0 1.8409673,0.628812 2.1029083,1.44 C 11.478841,17.3902 10.136466,19 10.136466,19 10.136466,19 13,18.12 13,15.779999 13,13.53108 11.568233,12 9.4205816,12 H 7 Z"/>
 <path style="fill:currentColor" class="ColorScheme-Text" d="M 15,12 19,8.760001 15,5 V 7.02 H 12.93736 C 11.960251,7.02 11.096393,6.391188 10.834452,5.58 10.521159,4.6098 11.863534,3 11.863534,3 11.863534,3 9,3.88 9,6.220001 9,8.46892 10.431767,10 12.579418,10 H 15 Z"/>
 <path style="fill:currentColor" class="ColorScheme-Text" d="m 18.805711,14 c -0.09101,0 -0.182726,0.03479 -0.253395,0.105469 l -0.697201,0.703125 1.335814,1.335937 0.703061,-0.697265 c 0.141347,-0.141352 0.141347,-0.364012 0,-0.505372 L 19.057642,14.105469 C 18.986972,14.034789 18.896725,14 18.805711,14 Z M 17.32489,15.338867 14,18.664063 V 20 h 1.335814 l 3.324891,-3.325195 z"/>
</svg>

<svg xmlns="http://www.w3.org/2000/svg" width="22" height="22" version="1.1">
 <defs>
  <style id="current-color-scheme" type="text/css">
   .ColorScheme-Text { color:#444444; } .ColorScheme-Highlight { color:#4285f4; }
  </style>
 </defs>
 <path style="fill:currentColor" class="ColorScheme-Text" d="M 7,10 3,13.24 7,17 V 14.98 H 9.0626 C 10.04,14.98 10.904,15.609 11.166,16.42 11.479,17.39 10.136,19 10.136,19 10.136,19 13,18.12 13,15.78 13,13.531 11.568,12 9.4206,12 H 7 Z"/>
 <path style="fill:currentColor" class="ColorScheme-Text" d="M 15,12 19,8.76 15,5 V 7.02 H 12.937 C 11.96,7.02 11.096,6.3912 10.834,5.58 10.521,4.6098 11.864,3 11.864,3 11.864,3 9,3.88 9,6.22 9,8.4689 10.432,10 12.579,10 H 15 Z"/>
 <path style="fill:currentColor" class="ColorScheme-Text" d="M 18.806,14 C 18.715,14 18.623,14.035 18.552,14.105 L 17.855,14.809 19.191,16.145 19.894,15.447 C 20.035,15.306 20.035,15.083 19.894,14.942 L 19.058,14.105 C 18.987,14.035 18.897,14 18.806,14 Z M 17.325,15.339 14,18.664 V 20 H 15.336 L 18.661,16.675 Z"/>
</svg>
